papirus-arc-dark/64x64/places/folder-open.svg

<?xml version="1.0" encoding="UTF-8" standalone="no"?>
<!-- Created with Inkscape (http://www.inkscape.org/) -->

<svg
   xmlns:dc="http://purl.org/dc/elements/1.1/"
   xmlns:cc="http://creativecommons.org/ns#"
   xmlns:rdf="http://www.w3.org/1999/02/22-rdf-syntax-ns#"
   xmlns:svg="http://www.w3.org/2000/svg"
   xmlns="http://www.w3.org/2000/svg"
   xmlns:sodipodi="http://sodipodi.sourceforge.net/DTD/sodipodi-0.dtd"
   xmlns:inkscape="http://www.inkscape.org/namespaces/inkscape"
   width="64"
   height="64"
   viewBox="0 0 64.000001 64.000001"
   id="svg2"
   version="1.1"
   inkscape:version="0.91 r13725"
   sodipodi:docname="folder-open.svg">
  <defs
     id="defs4" />
  <sodipodi:namedview
     id="base"
     pagecolor="#ffffff"
     bordercolor="#666666"
     borderopacity="1.0"
     inkscape:pageopacity="0.0"
     inkscape:pageshadow="2"
     inkscape:zoom="11.36"
     inkscape:cx="23.508829"
     inkscape:cy="29.882842"
     inkscape:document-units="px"
     inkscape:current-layer="layer1"
     showgrid="false"
     units="px"
     inkscape:window-width="1600"
     inkscape:window-height="843"
     inkscape:window-x="0"
     inkscape:window-y="0"
     inkscape:window-maximized="1" />
  <metadata
     id="metadata7">
    <rdf:RDF>
      <cc:Work
         rdf:about="">
        <dc:format>image/svg+xml</dc:format>
        <dc:type
           rdf:resource="http://purl.org/dc/dcmitype/StillImage" />
        <dc:title />
      </cc:Work>
    </rdf:RDF>
  </metadata>
  <g
     inkscape:label="Layer 1"
     inkscape:groupmode="layer"
     id="layer1"
     transform="translate(0,-988.36216)">
    <path
       id="path5171-8"
       d="m 6.99995,1035.8632 0,-34.988 c 0,-1.38454 1.1235,-2.65304 2.5,-2.50014 l 19.5,0 6,4.99924 19.628,0 c 0,0 2.3718,0 2.3718,2.4992 l 0,29.99 c 0,1.3845 -1.115,2.4992 -2.5,2.4992 l -44.999,0 c -1.385,0 -2.5,-1.1146 -2.5,-2.4992 z"
       inkscape:connector-curvature="0"
       style="fill:#5895dc" />
    <path
       id="path5689"
       d="m 34.49995,1011.3622 -4.5,5 -20.5,0 c -2.5,0 -2.5,2.396 -2.5,2.396 l 0,2 c 0,0 0,-2.3965 2.5,-2.3965 l 20.5,0 4.5,-5 20,0 c 1.3765,-0.153 2.5,1.115 2.5,2.5 l 0,-2 c 0,-1.385 -1.1235,-2.653 -2.5,-2.5 l -20,0 z"
       inkscape:connector-curvature="0"
       style="opacity:0.1" />
    <path
       id="path5173-5"
       d="m 56.99995,1040.8622 0,-26 c 0,-1.385 -1.1235,-2.653 -2.5,-2.5 l -20,0 -4.5,5 -20.5,0 c -2.5,0 -2.5,2.3959 -2.5,2.3959 l 0,21.104 c 0,1.385 1.115,2.5 2.5,2.5 l 45,0 c 1.385,0 2.5,-1.115 2.5,-2.5 z"
       inkscape:connector-curvature="0"
       style="fill:#6ba4e7" />
    <path
       style="opacity:0.1;fill:#ffffff"
       d="M 34.5 24 L 30 29 L 9.5 29 C 7 29 7 31.396484 7 31.396484 L 7 32.396484 C 7 32.396484 7 30 9.5 30 L 30 30 L 34.5 25 L 54.5 25 C 55.8765 24.847 57 26.115 57 27.5 L 57 26.5 C 57 25.115 55.8765 23.847 54.5 24 L 34.5 24 z "
       transform="translate(0,988.36216)"
       id="path5029-6" />
    <path
       style="opacity:0.3"
       d="M 7 51.5 L 7 52.5 C 7 53.885 8.115 55 9.5 55 L 54.5 55 C 55.885 55 57 53.885 57 52.5 L 57 51.5 C 57 52.885 55.885 54 54.5 54 L 9.5 54 C 8.115 54 7 52.885 7 51.5 z "
       transform="translate(0,988.36216)"
       id="path5034-3" />
    <path
       style="opacity:0.1;fill:#ffffff"
       d="M 9.5 10.013672 C 8.1235 9.8603719 7 11.128632 7 12.513672 L 7 13.513672 C 7 12.128572 8.1235 10.860372 9.5 11.013672 L 29 11.013672 L 35 16.011719 L 54.628906 16.011719 C 54.628906 16.011719 57 16.012519 57 18.511719 L 57 17.511719 C 57 15.012519 54.628906 15.011719 54.628906 15.011719 L 35 15.011719 L 29 10.013672 L 9.5 10.013672 z "
       transform="translate(0,988.36216)"
       id="path5024-8" />
  </g>
</svg>

<?xml version="1.0" encoding="UTF-8" standalone="no"?>
<svg id="svg2" xmlns:rdf="http://www.w3.org/1999/02/22-rdf-syntax-ns#" xmlns="http://www.w3.org/2000/svg" viewBox="0 0 64.000001 64.000001" width="64" version="1.1" xmlns:cc="http://creativecommons.org/ns#" height="64" xmlns:dc="http://purl.org/dc/elements/1.1/">
 <metadata id="metadata7">
  <rdf:RDF>
   <cc:Work rdf:about="">
    <dc:format>image/svg+xml</dc:format>
    <dc:type rdf:resource="http://purl.org/dc/dcmitype/StillImage"/>
    <dc:title/>
   </cc:Work>
  </rdf:RDF>
 </metadata>
 <g id="layer1" transform="translate(0 -988.36)">
  <path id="path5171-8" fill="#5895dc" d="m7 1035.9v-34.988c0-1.3845 1.1235-2.653 2.5-2.5001h19.5l6 4.9992h19.628s2.3718 0 2.3718 2.4992v29.99c0 1.3845-1.115 2.4992-2.5 2.4992h-44.999c-1.385 0-2.5-1.1146-2.5-2.4992z"/>
  <path id="path5689" opacity=".1" d="m34.5 1011.4-4.5 5h-20.5c-2.5 0-2.5 2.396-2.5 2.396v2s0-2.3965 2.5-2.3965h20.5l4.5-5h20c1.3765-0.153 2.5 1.115 2.5 2.5v-2c0-1.385-1.1235-2.653-2.5-2.5h-20z"/>
  <path id="path5173-5" fill="#6ba4e7" d="m57 1040.9v-26c0-1.385-1.1235-2.653-2.5-2.5h-20l-4.5 5h-20.5c-2.5 0-2.5 2.3959-2.5 2.3959v21.104c0 1.385 1.115 2.5 2.5 2.5h45c1.385 0 2.5-1.115 2.5-2.5z"/>
  <path id="path5029-6" opacity=".1" d="m34.5 24l-4.5 5h-20.5c-2.5 0-2.5 2.396-2.5 2.396v1s0-2.396 2.5-2.396h20.5l4.5-5h20c1.376-0.153 2.5 1.115 2.5 2.5v-1c0-1.385-1.124-2.653-2.5-2.5h-20z" transform="translate(0 988.36)" fill="#fff"/>
  <path id="path5034-3" opacity=".2" d="m7 1040.9v1c0 1.385 1.115 2.5 2.5 2.5h45c1.385 0 2.5-1.115 2.5-2.5v-1c0 1.385-1.115 2.5-2.5 2.5h-45c-1.385 0-2.5-1.115-2.5-2.5z"/>
  <path id="path5024-8" opacity=".1" d="m9.5 10.014c-1.3765-0.1536-2.5 1.115-2.5 2.5v1c0-1.385 1.1235-2.654 2.5-2.5h19.5l6 4.998h19.629s2.371 0.001 2.371 2.5v-1c0-2.499-2.371-2.5-2.371-2.5h-19.629l-6-4.998h-19.5z" transform="translate(0 988.36)" fill="#fff"/>
 </g>
</svg>
